X: 22
T: No_118_On_Top_of_the_Mountain_the_Wind_Blows.krn
N: Derived from No_118_On_Top_of_the_Mountain_the_Wind_Blows.krn
%%abc-version 2.0
%%abcx-abcm2ps-target-version 5.9.1 (29 Sep 2008)
%%abc-creator hum2abc beta
%%abcx-conversion-date 2019/03/15 08:37:56
%%humdrum-veritas 1432878600
%%humdrum-veritas-data 1560975169
%%linebreak <none>
%%barnumbers 0
L: 1/16
M: 3/4
K: F clef=bass
F,3F, [I:setbarnb 1]| 
C3C C3C C2A,A, | 
CCC3/A,/ G,F,G,G, G,F,D,D, ||  
[M:2/4](3F,2F,2F,2 F,3/D,/D,D, | 
(3G,2G,2G,2 (3G,2F,2D,2 | 
G,G,G,3/F,/D,4 | 
F,F,F,3/F,/ F,2D,D, | 
(3F,2F,2F,2 (3F,2D,2D,2 ||  
[M:3/4]F,F,F,3/F,/ F,3F, F,3D, ||  
[M:2/4]F,F,F,3/F,/ (3F,2F,2F,2 | 
F,2F,2-F,4 |]  



